watch-vibrate-off.svg

<svg fill="currentColor" viewBox="0 0 24 24"><path d="M0 9h2v6H0zm12-1.5c2.47 0 4.47 2.03 4.46 4.5-.01.38-.06.76-.16 1.13l1.2 1.18c.31-.73.5-1.51.5-2.31 0-1.83-.84-3.56-2.28-4.69L15 3H9l-.41 2.39 2.27 2.27c.37-.11.75-.16 1.14-.16m9 9.5V7h-2v8.8l1.2 1.2zm-4.5-1.14 5.61 5.6-1.27 1.27-5.29-5.29L15 21H9l-.73-4.28c-2.42-1.9-3-5.32-1.36-7.92L1.11 3l1.28-1.27 5.7 5.71L9.17 8.5l6.27 6.29zm-2.45.08-6-6c-.35.63-.55 1.34-.55 2.06 0 2.47 2.03 4.47 4.5 4.46.72 0 1.42-.18 2.05-.52M22 9v6h2V9zM3 17h2V7H3z"/></svg>

<svg  viewBox="0 0 24 24" fill="currentColor"><path  d="M0,9H2V15H0V9M12,7.5C14.47,7.5 16.47,9.53 16.46,12C16.45,12.38 16.4,12.76 16.3,13.13L17.5,14.31C17.81,13.58 18,12.8 18,12C18,10.17 17.16,8.44 15.72,7.31L15,3H9L8.59,5.39L10.86,7.66C11.23,7.55 11.61,7.5 12,7.5M21,17V7H19V15.8L20.2,17H21M16.5,15.86L22.11,21.46L20.84,22.73L15.55,17.44L15,21H9L8.27,16.72C5.85,14.82 5.27,11.4 6.91,8.8L1.11,3L2.39,1.73L8.09,7.44L9.17,8.5L15.44,14.79L16.5,15.86M14.05,15.94L8.05,9.94C7.7,10.57 7.5,11.28 7.5,12C7.5,14.47 9.53,16.47 12,16.46C12.72,16.46 13.42,16.28 14.05,15.94M22,9V15H24V9H22M3,17H5V7H3V17Z"/></svg>
